!!!COM: Casimir-Dosseh, Alex
!!!CDT: b.1923
!!!OTL: National Anthem, Togo
!!!ENC: Davis, Matthew J.
!!Vocal Line Only
**kern
*clefG2
*k[]
*C:
*M4/4
=1-
8r
8c
8e
8g
=2
4cc
4g
8a
8e
[4g
=3
8g]
16e
16d
8c
8r
8e
8f
8g
16.a
32g#
=4
4a
8r
8b
8cc
8dd
8.g
16f#
=5
2.g
4g
=6
4f
2dd
8ee
8dd
=7
4cc
4b
4a
[4a
=8
4a]
6g
6
e
6c
4e
4d
=9
4c
4r
4e
8.a
16g#
=10
8.a
16b
8.cc
16b
8.a
16f
8.a
16f
=11
8.e
16d#
2e
4f#
=12
2.g
8r
8c
=13
4e
4g
4.a
8g
=14
8a
8g
8e
8d
8e
8c
8r
8d
=15
4f
4a
8cc
4dd
8cc
=16
8dd
8cc
8b
8a
4g
8.g
16g
=17
4ee
4dd
4cc
4b
=18
8.a
16g#
4a
4r
8.a
16a
=19
4ff
4ee
4dd
4cc
=20
8.b
16a
4g
4r
6g
6a
6b
=21
8cc
8r
6g
6e
6c
4e
4d
=22
2c
==|!
*-
